X: 10823
T: Drama Queen
R: jig
M: 6/8
K: Eminor
|:EGA B2G|A2E GED|EGA Bed|BAG A2F|
EGA BGG|AEE GFD|EGA Bed|ABF E2D:|
|:ABd edd|gee a2g|abc' b2a|g2f efd|
edg a2g|abc' b2a|g2f e2d|efd e3:|
|:B^cd ^c2B|A2G F2D|EDE GEG|ABc B2A|
deB ABG|ABF E2D|EGA Bde|ABF E3:|

